X:471
T:The Merry Hop
C:John Young, 1728
L:1/4
M:3/2
%%MIDI gchord czc
%%MIDI beat 100 95 80
S:Colin Hume's website,  colinhume.com  - chords can also be printed below the stave.
Q:1/2=94
K:F
P:A
|: "F"fg/f/ "C"ef/e/ "Bb"d2 | "F"cf- "Bb"fd "F"cB/A/ | "Gm"Bc/B/ "F"AB/A/ "C"G2 | "F"CF- "/"FA "C7"GF :|
P:B
|: "F"F/G/A/B/ "/"cF "/"c2 | "C7"EG- "/"GB "/"AG/F/ | "F"F/G/A/B/ "/"cF "/"c2 | "F"CF- "/"FA "C7"GF :|

